images/decorative/contacts/instagram-icon.svg

<svg width="12" height="12" viewBox="0 0 12 12" fill="none" xmlns="http://www.w3.org/2000/svg">
<path d="M6 0C7.6302 0 7.8336 0.00599997 8.4732 0.036C9.1122 0.066 9.5472 0.1662 9.93 0.315C10.326 0.4674 10.6596 0.6738 10.9932 1.0068C11.2983 1.30674 11.5344 1.66955 11.685 2.07C11.8332 2.4522 11.934 2.8878 11.964 3.5268C11.9922 4.1664 12 4.3698 12 6C12 7.6302 11.994 7.8336 11.964 8.4732C11.934 9.1122 11.8332 9.5472 11.685 9.93C11.5348 10.3307 11.2987 10.6936 10.9932 10.9932C10.6932 11.2982 10.3304 11.5343 9.93 11.685C9.5478 11.8332 9.1122 11.934 8.4732 11.964C7.8336 11.9922 7.6302 12 6 12C4.3698 12 4.1664 11.994 3.5268 11.964C2.8878 11.934 2.4528 11.8332 2.07 11.685C1.6694 11.5347 1.30652 11.2986 1.0068 10.9932C0.701644 10.6933 0.465559 10.3305 0.315 9.93C0.1662 9.5478 0.066 9.1122 0.036 8.4732C0.00779997 7.8336 0 7.6302 0 6C0 4.3698 0.00599997 4.1664 0.036 3.5268C0.066 2.8872 0.1662 2.4528 0.315 2.07C0.465142 1.66931 0.701282 1.30639 1.0068 1.0068C1.3066 0.701539 1.66946 0.465438 2.07 0.315C2.4528 0.1662 2.8872 0.066 3.5268 0.036C4.1664 0.00779997 4.3698 0 6 0ZM6 3C5.20435 3 4.44129 3.31607 3.87868 3.87868C3.31607 4.44129 3 5.20435 3 6C3 6.79565 3.31607 7.55871 3.87868 8.12132C4.44129 8.68393 5.20435 9 6 9C6.79565 9 7.55871 8.68393 8.12132 8.12132C8.68393 7.55871 9 6.79565 9 6C9 5.20435 8.68393 4.44129 8.12132 3.87868C7.55871 3.31607 6.79565 3 6 3ZM9.9 2.85C9.9 2.65109 9.82098 2.46032 9.68033 2.31967C9.53968 2.17902 9.34891 2.1 9.15 2.1C8.95109 2.1 8.76032 2.17902 8.61967 2.31967C8.47902 2.46032 8.4 2.65109 8.4 2.85C8.4 3.04891 8.47902 3.23968 8.61967 3.38033C8.76032 3.52098 8.95109 3.6 9.15 3.6C9.34891 3.6 9.53968 3.52098 9.68033 3.38033C9.82098 3.23968 9.9 3.04891 9.9 2.85ZM6 4.2C6.47739 4.2 6.93523 4.38964 7.27279 4.72721C7.61036 5.06477 7.8 5.52261 7.8 6C7.8 6.47739 7.61036 6.93523 7.27279 7.27279C6.93523 7.61036 6.47739 7.8 6 7.8C5.52261 7.8 5.06477 7.61036 4.72721 7.27279C4.38964 6.93523 4.2 6.47739 4.2 6C4.2 5.52261 4.38964 5.06477 4.72721 4.72721C5.06477 4.38964 5.52261 4.2 6 4.2Z" fill="#122659"/>
</svg>

<svg width="12" height="12" fill="none" xmlns="http://www.w3.org/2000/svg"><path d="M6 0c1.63 0 1.834.006 2.473.036.64.03 1.074.13 1.457.279.396.152.73.359 1.063.692.305.3.541.663.692 1.063.148.382.249.818.279 1.457.028.64.036.843.036 2.473s-.006 1.834-.036 2.473c-.03.64-.13 1.074-.279 1.457-.15.4-.386.764-.692 1.063-.3.305-.663.541-1.063.692-.382.148-.818.249-1.457.279C7.833 11.992 7.63 12 6 12s-1.834-.006-2.473-.036c-.64-.03-1.074-.13-1.457-.279-.4-.15-.763-.386-1.063-.692A2.942 2.942 0 0 1 .315 9.93C.166 9.548.066 9.112.036 8.473.008 7.833 0 7.63 0 6s.006-1.834.036-2.473c.03-.64.13-1.074.279-1.457.15-.4.386-.764.692-1.063.3-.305.662-.542 1.063-.692.383-.149.817-.249 1.457-.279C4.167.008 4.37 0 6 0Zm0 3a3 3 0 1 0 0 6 3 3 0 0 0 0-6Zm3.9-.15a.75.75 0 1 0-1.5 0 .75.75 0 0 0 1.5 0ZM6 4.2a1.8 1.8 0 1 1 0 3.6 1.8 1.8 0 0 1 0-3.6Z" fill="#122659"/></svg>
